docs/img/icon1/service-mobile-applications_mobile.svg

<svg width="150" height="196" viewBox="0 0 150 196" fill="none" xmlns="http://www.w3.org/2000/svg">
<path d="M80.6929 195.328H129.763C136.669 195.328 141.576 193.766 144.484 190.64C147.755 187.862 149.391 183.174 149.391 176.577V155.742C149.391 149.144 147.755 144.282 144.484 141.157C141.576 138.379 136.669 136.99 129.763 136.99H85.0547C80.3295 136.99 76.6947 135.601 74.1503 132.823C71.6059 130.392 70.3337 126.92 70.3337 122.406V114.593H129.763C136.669 114.593 141.576 113.03 144.484 109.905C147.755 107.127 149.391 102.439 149.391 95.8412V18.7518C149.391 12.1541 147.755 7.29257 144.484 4.16733C141.576 1.38934 136.669 0.000335693 129.763 0.000335693H19.628C12.7219 0.000335693 7.63312 1.38934 4.36178 4.16733C1.45393 7.29257 0 12.1541 0 18.7518V116.676C0 143.067 7.26964 162.687 21.8089 175.535C36.7117 188.73 56.3397 195.328 80.6929 195.328Z" fill="#FF7D04"/>
<path d="M41.7891 53.5527L39.7266 46.832H39.6738C39.6816 46.9922 39.6934 47.2344 39.709 47.5586C39.7285 47.8789 39.7461 48.2207 39.7617 48.584C39.7773 48.9473 39.7852 49.2754 39.7852 49.5684V53.5527H38.1621V44.9863H40.6348L42.6621 51.5371H42.6973L44.8477 44.9863H47.3203V53.5527H45.627V49.498C45.627 49.2285 45.6309 48.918 45.6387 48.5664C45.6504 48.2148 45.6641 47.8809 45.6797 47.5645C45.6953 47.2441 45.707 47.0039 45.7148 46.8438H45.6621L43.4531 53.5527H41.7891ZM55.2949 50.2656C55.2949 50.8125 55.2207 51.2969 55.0723 51.7188C54.9277 52.1406 54.7148 52.498 54.4336 52.791C54.1562 53.0801 53.8203 53.2988 53.4258 53.4473C53.0352 53.5957 52.5938 53.6699 52.1016 53.6699C51.6406 53.6699 51.2168 53.5957 50.8301 53.4473C50.4473 53.2988 50.1133 53.0801 49.8281 52.791C49.5469 52.498 49.3281 52.1406 49.1719 51.7188C49.0195 51.2969 48.9434 50.8125 48.9434 50.2656C48.9434 49.5391 49.0723 48.9238 49.3301 48.4199C49.5879 47.916 49.9551 47.5332 50.4316 47.2715C50.9082 47.0098 51.4766 46.8789 52.1367 46.8789C52.75 46.8789 53.293 47.0098 53.7656 47.2715C54.2422 47.5332 54.6152 47.916 54.8848 48.4199C55.1582 48.9238 55.2949 49.5391 55.2949 50.2656ZM50.7656 50.2656C50.7656 50.6953 50.8125 51.0566 50.9062 51.3496C51 51.6426 51.1465 51.8633 51.3457 52.0117C51.5449 52.1602 51.8047 52.2344 52.125 52.2344C52.4414 52.2344 52.6973 52.1602 52.8926 52.0117C53.0918 51.8633 53.2363 51.6426 53.3262 51.3496C53.4199 51.0566 53.4668 50.6953 53.4668 50.2656C53.4668 49.832 53.4199 49.4727 53.3262 49.1875C53.2363 48.8984 53.0918 48.6816 52.8926 48.5371C52.6934 48.3926 52.4336 48.3203 52.1133 48.3203C51.6406 48.3203 51.2969 48.4824 51.082 48.8066C50.8711 49.1309 50.7656 49.6172 50.7656 50.2656ZM56.373 49.627C56.373 48.6621 56.4922 47.8418 56.7305 47.166C56.9688 46.4902 57.3477 45.9512 57.8672 45.5488C58.3867 45.1426 59.0684 44.8672 59.9121 44.7227C60.334 44.6484 60.7617 44.5879 61.1953 44.541C61.6328 44.4902 62.0859 44.4336 62.5547 44.3711L62.7598 45.9355C62.5566 45.959 62.3359 45.9844 62.0977 46.0117C61.8594 46.0391 61.6191 46.0684 61.377 46.0996C61.1348 46.127 60.9004 46.1562 60.6738 46.1875C60.4473 46.2148 60.2422 46.2422 60.0586 46.2695C59.6602 46.332 59.3281 46.4297 59.0625 46.5625C58.7969 46.6953 58.5938 46.9062 58.4531 47.1953C58.3125 47.4844 58.2266 47.9004 58.1953 48.4434H58.2832C58.377 48.2949 58.5098 48.1445 58.6816 47.9922C58.8535 47.8359 59.0664 47.707 59.3203 47.6055C59.5742 47.5 59.8672 47.4473 60.1992 47.4473C60.7227 47.4473 61.1758 47.5547 61.5586 47.7695C61.9414 47.9844 62.2363 48.3047 62.4434 48.7305C62.6543 49.1523 62.7598 49.6797 62.7598 50.3125C62.7598 51.0547 62.623 51.6758 62.3496 52.1758C62.0801 52.6719 61.7051 53.0449 61.2246 53.2949C60.7441 53.5449 60.1875 53.6699 59.5547 53.6699C59.0703 53.6699 58.6328 53.582 58.2422 53.4062C57.8516 53.2305 57.5156 52.9707 57.2344 52.627C56.957 52.2832 56.7441 51.8613 56.5957 51.3613C56.4473 50.8574 56.373 50.2793 56.373 49.627ZM59.6602 52.2227C59.9141 52.2227 60.1348 52.168 60.3223 52.0586C60.5137 51.9453 60.6621 51.7617 60.7676 51.5078C60.877 51.25 60.9316 50.9043 60.9316 50.4707C60.9316 49.9473 60.8438 49.5332 60.668 49.2285C60.4961 48.9199 60.2012 48.7656 59.7832 48.7656C59.5293 48.7656 59.291 48.8281 59.0684 48.9531C58.8496 49.0742 58.6641 49.2148 58.5117 49.375C58.3594 49.5312 58.2539 49.6641 58.1953 49.7734C58.1953 50.082 58.2188 50.3828 58.2656 50.6758C58.3164 50.9648 58.3965 51.2266 58.5059 51.4609C58.6152 51.6953 58.7637 51.8809 58.9512 52.0176C59.1426 52.1543 59.3789 52.2227 59.6602 52.2227ZM65.9648 47.002V49.5918C65.9648 49.7246 65.959 49.8926 65.9473 50.0957C65.9395 50.2949 65.9277 50.498 65.9121 50.7051C65.8965 50.9121 65.8809 51.0977 65.8652 51.2617C65.8496 51.4258 65.8379 51.5371 65.8301 51.5957L68.8535 47.002H71.0039V53.5527H69.2754V50.9395C69.2754 50.7246 69.2832 50.4883 69.2988 50.2305C69.3145 49.9688 69.332 49.7227 69.3516 49.4922C69.3711 49.2617 69.3848 49.0879 69.3926 48.9707L66.3809 53.5527H64.2363V47.002H65.9648ZM78.75 53.5527H76.9629V48.3438H75.3164C75.2344 49.3047 75.1367 50.123 75.0234 50.7988C74.9102 51.4746 74.7656 52.0254 74.5898 52.4512C74.4141 52.873 74.1953 53.1816 73.9336 53.377C73.6719 53.5723 73.3496 53.6699 72.9668 53.6699C72.7559 53.6699 72.5664 53.6543 72.3984 53.623C72.2344 53.5918 72.084 53.5449 71.9473 53.4824V52.0527C72.0332 52.0879 72.125 52.1172 72.2227 52.1406C72.3203 52.1602 72.4199 52.1699 72.5215 52.1699C72.6348 52.1699 72.7422 52.125 72.8438 52.0352C72.9453 51.9453 73.041 51.791 73.1309 51.5723C73.2207 51.3496 73.3047 51.043 73.3828 50.6523C73.4648 50.2617 73.5391 49.7676 73.6055 49.1699C73.6719 48.5723 73.7344 47.8496 73.793 47.002H78.75V53.5527ZM82.418 49.5332H83.6777C84.3496 49.5332 84.9043 49.6035 85.3418 49.7441C85.7793 49.8848 86.1055 50.0996 86.3203 50.3887C86.5352 50.6738 86.6426 51.0332 86.6426 51.4668C86.6426 51.8887 86.5449 52.2559 86.3496 52.5684C86.1543 52.8809 85.8438 53.123 85.418 53.2949C84.9922 53.4668 84.4355 53.5527 83.748 53.5527H80.6309V47.002H82.418V49.5332ZM84.8555 51.4902C84.8555 51.2363 84.7539 51.0527 84.5508 50.9395C84.3477 50.8262 84.0449 50.7695 83.6426 50.7695H82.418V52.3164H83.666C84.0137 52.3164 84.2988 52.2539 84.5215 52.1289C84.7441 52 84.8555 51.7871 84.8555 51.4902ZM89.7891 47.002V49.5215H92.2852V47.002H94.0723V53.5527H92.2852V50.8516H89.7891V53.5527H88.002V47.002H89.7891ZM95.9473 53.5527V47.002H97.7344V49.5332H98.5957C99.2637 49.5332 99.8145 49.6035 100.248 49.7441C100.686 49.8848 101.01 50.0996 101.221 50.3887C101.432 50.6738 101.537 51.0332 101.537 51.4668C101.537 51.8887 101.439 52.2559 101.244 52.5684C101.049 52.8809 100.74 53.123 100.318 53.2949C99.8965 53.4668 99.3438 53.5527 98.6602 53.5527H95.9473ZM97.7344 52.3164H98.5605C98.9082 52.3164 99.1934 52.2539 99.416 52.1289C99.6387 52 99.75 51.7871 99.75 51.4902C99.75 51.2363 99.6484 51.0527 99.4453 50.9395C99.2422 50.8262 98.9395 50.7695 98.5371 50.7695H97.7344V52.3164ZM102.486 53.5527V47.002H104.273V53.5527H102.486ZM108.855 46.8789C109.461 46.8789 109.982 46.9961 110.42 47.2305C110.857 47.4609 111.195 47.7969 111.434 48.2383C111.672 48.6797 111.791 49.2188 111.791 49.8555V50.7227H107.566C107.586 51.2266 107.736 51.623 108.018 51.9121C108.303 52.1973 108.697 52.3398 109.201 52.3398C109.619 52.3398 110.002 52.2969 110.35 52.2109C110.697 52.125 111.055 51.9961 111.422 51.8242V53.207C111.098 53.3672 110.758 53.4844 110.402 53.5586C110.051 53.6328 109.623 53.6699 109.119 53.6699C108.463 53.6699 107.881 53.5488 107.373 53.3066C106.869 53.0645 106.473 52.6953 106.184 52.1992C105.898 51.7031 105.756 51.0781 105.756 50.3242C105.756 49.5586 105.885 48.9219 106.143 48.4141C106.404 47.9023 106.768 47.5195 107.232 47.2656C107.697 47.0078 108.238 46.8789 108.855 46.8789ZM108.867 48.1504C108.52 48.1504 108.23 48.2617 108 48.4844C107.773 48.707 107.643 49.0566 107.607 49.5332H110.115C110.111 49.2676 110.062 49.0312 109.969 48.8242C109.879 48.6172 109.742 48.4531 109.559 48.332C109.379 48.2109 109.148 48.1504 108.867 48.1504ZM37.5293 63.002V69.5527H35.7363V64.3438H33.3633V69.5527H31.5762V63.002H37.5293ZM43.0488 62.8789C43.7871 62.8789 44.3828 63.166 44.8359 63.7402C45.293 64.3145 45.5215 65.1562 45.5215 66.2656C45.5215 67.0078 45.4141 67.6328 45.1992 68.1406C44.9844 68.6445 44.6875 69.0254 44.3086 69.2832C43.9297 69.541 43.4941 69.6699 43.002 69.6699C42.6855 69.6699 42.4141 69.6309 42.1875 69.5527C41.9609 69.4707 41.7676 69.3672 41.6074 69.2422C41.4473 69.1133 41.3086 68.9766 41.1914 68.832H41.0977C41.1289 68.9883 41.1523 69.1484 41.168 69.3125C41.1836 69.4766 41.1914 69.6367 41.1914 69.793V72.4355H39.4043V63.002H40.8574L41.1094 63.8516H41.1914C41.3086 63.6758 41.4512 63.5137 41.6191 63.3652C41.7871 63.2168 41.9883 63.0996 42.2227 63.0137C42.4609 62.9238 42.7363 62.8789 43.0488 62.8789ZM42.4746 64.3086C42.1621 64.3086 41.9141 64.373 41.7305 64.502C41.5469 64.6309 41.4121 64.8242 41.3262 65.082C41.2441 65.3398 41.1992 65.666 41.1914 66.0605V66.2539C41.1914 66.6758 41.2305 67.0332 41.3086 67.3262C41.3906 67.6191 41.5254 67.8418 41.7129 67.9941C41.9043 68.1465 42.166 68.2227 42.498 68.2227C42.7715 68.2227 42.9961 68.1465 43.1719 67.9941C43.3477 67.8418 43.4785 67.6191 43.5645 67.3262C43.6543 67.0293 43.6992 66.668 43.6992 66.2422C43.6992 65.6016 43.5996 65.1191 43.4004 64.7949C43.2012 64.4707 42.8926 64.3086 42.4746 64.3086ZM48.7266 63.002V65.5918C48.7266 65.7246 48.7207 65.8926 48.709 66.0957C48.7012 66.2949 48.6895 66.498 48.6738 66.7051C48.6582 66.9121 48.6426 67.0977 48.627 67.2617C48.6113 67.4258 48.5996 67.5371 48.5918 67.5957L51.6152 63.002H53.7656V69.5527H52.0371V66.9395C52.0371 66.7246 52.0449 66.4883 52.0605 66.2305C52.0762 65.9688 52.0938 65.7227 52.1133 65.4922C52.1328 65.2617 52.1465 65.0879 52.1543 64.9707L49.1426 69.5527H46.998V63.002H48.7266ZM59.291 62.8789C60.0293 62.8789 60.625 63.166 61.0781 63.7402C61.5352 64.3145 61.7637 65.1562 61.7637 66.2656C61.7637 67.0078 61.6562 67.6328 61.4414 68.1406C61.2266 68.6445 60.9297 69.0254 60.5508 69.2832C60.1719 69.541 59.7363 69.6699 59.2441 69.6699C58.9277 69.6699 58.6562 69.6309 58.4297 69.5527C58.2031 69.4707 58.0098 69.3672 57.8496 69.2422C57.6895 69.1133 57.5508 68.9766 57.4336 68.832H57.3398C57.3711 68.9883 57.3945 69.1484 57.4102 69.3125C57.4258 69.4766 57.4336 69.6367 57.4336 69.793V72.4355H55.6465V63.002H57.0996L57.3516 63.8516H57.4336C57.5508 63.6758 57.6934 63.5137 57.8613 63.3652C58.0293 63.2168 58.2305 63.0996 58.4648 63.0137C58.7031 62.9238 58.9785 62.8789 59.291 62.8789ZM58.7168 64.3086C58.4043 64.3086 58.1562 64.373 57.9727 64.502C57.7891 64.6309 57.6543 64.8242 57.5684 65.082C57.4863 65.3398 57.4414 65.666 57.4336 66.0605V66.2539C57.4336 66.6758 57.4727 67.0332 57.5508 67.3262C57.6328 67.6191 57.7676 67.8418 57.9551 67.9941C58.1465 68.1465 58.4082 68.2227 58.7402 68.2227C59.0137 68.2227 59.2383 68.1465 59.4141 67.9941C59.5898 67.8418 59.7207 67.6191 59.8066 67.3262C59.8965 67.0293 59.9414 66.668 59.9414 66.2422C59.9414 65.6016 59.8418 65.1191 59.6426 64.7949C59.4434 64.4707 59.1348 64.3086 58.7168 64.3086ZM69.1055 69.5527H67.3184V64.3438H65.6719C65.5898 65.3047 65.4922 66.123 65.3789 66.7988C65.2656 67.4746 65.1211 68.0254 64.9453 68.4512C64.7695 68.873 64.5508 69.1816 64.2891 69.377C64.0273 69.5723 63.7051 69.6699 63.3223 69.6699C63.1113 69.6699 62.9219 69.6543 62.7539 69.623C62.5898 69.5918 62.4395 69.5449 62.3027 69.4824V68.0527C62.3887 68.0879 62.4805 68.1172 62.5781 68.1406C62.6758 68.1602 62.7754 68.1699 62.877 68.1699C62.9902 68.1699 63.0977 68.125 63.1992 68.0352C63.3008 67.9453 63.3965 67.791 63.4863 67.5723C63.5762 67.3496 63.6602 67.043 63.7383 66.6523C63.8203 66.2617 63.8945 65.7676 63.9609 65.1699C64.0273 64.5723 64.0898 63.8496 64.1484 63.002H69.1055V69.5527ZM76.9395 66.2656C76.9395 66.8125 76.8652 67.2969 76.7168 67.7188C76.5723 68.1406 76.3594 68.498 76.0781 68.791C75.8008 69.0801 75.4648 69.2988 75.0703 69.4473C74.6797 69.5957 74.2383 69.6699 73.7461 69.6699C73.2852 69.6699 72.8613 69.5957 72.4746 69.4473C72.0918 69.2988 71.7578 69.0801 71.4727 68.791C71.1914 68.498 70.9727 68.1406 70.8164 67.7188C70.6641 67.2969 70.5879 66.8125 70.5879 66.2656C70.5879 65.5391 70.7168 64.9238 70.9746 64.4199C71.2324 63.916 71.5996 63.5332 72.0762 63.2715C72.5527 63.0098 73.1211 62.8789 73.7812 62.8789C74.3945 62.8789 74.9375 63.0098 75.4102 63.2715C75.8867 63.5332 76.2598 63.916 76.5293 64.4199C76.8027 64.9238 76.9395 65.5391 76.9395 66.2656ZM72.4102 66.2656C72.4102 66.6953 72.457 67.0566 72.5508 67.3496C72.6445 67.6426 72.791 67.8633 72.9902 68.0117C73.1895 68.1602 73.4492 68.2344 73.7695 68.2344C74.0859 68.2344 74.3418 68.1602 74.5371 68.0117C74.7363 67.8633 74.8809 67.6426 74.9707 67.3496C75.0645 67.0566 75.1113 66.6953 75.1113 66.2656C75.1113 65.832 75.0645 65.4727 74.9707 65.1875C74.8809 64.8984 74.7363 64.6816 74.5371 64.5371C74.3379 64.3926 74.0781 64.3203 73.7578 64.3203C73.2852 64.3203 72.9414 64.4824 72.7266 64.8066C72.5156 65.1309 72.4102 65.6172 72.4102 66.2656ZM87.7266 63.002L85.3125 66.1426L87.9551 69.5527H86.0449L83.5488 66.2305V69.5527H81.8848V66.2305L79.3887 69.5527H77.4785L80.1211 66.1426L77.707 63.002H79.5527L81.8848 66.1836V63.002H83.5488V66.1836L85.8809 63.002H87.7266ZM91.5938 62.8789C92.1992 62.8789 92.7207 62.9961 93.1582 63.2305C93.5957 63.4609 93.9336 63.7969 94.1719 64.2383C94.4102 64.6797 94.5293 65.2188 94.5293 65.8555V66.7227H90.3047C90.3242 67.2266 90.4746 67.623 90.7559 67.9121C91.041 68.1973 91.4355 68.3398 91.9395 68.3398C92.3574 68.3398 92.7402 68.2969 93.0879 68.2109C93.4355 68.125 93.793 67.9961 94.1602 67.8242V69.207C93.8359 69.3672 93.4961 69.4844 93.1406 69.5586C92.7891 69.6328 92.3613 69.6699 91.8574 69.6699C91.2012 69.6699 90.6191 69.5488 90.1113 69.3066C89.6074 69.0645 89.2109 68.6953 88.9219 68.1992C88.6367 67.7031 88.4941 67.0781 88.4941 66.3242C88.4941 65.5586 88.623 64.9219 88.8809 64.4141C89.1426 63.9023 89.5059 63.5195 89.9707 63.2656C90.4355 63.0078 90.9766 62.8789 91.5938 62.8789ZM91.6055 64.1504C91.2578 64.1504 90.9688 64.2617 90.7383 64.4844C90.5117 64.707 90.3809 65.0566 90.3457 65.5332H92.8535C92.8496 65.2676 92.8008 65.0312 92.707 64.8242C92.6172 64.6172 92.4805 64.4531 92.2969 64.332C92.1172 64.2109 91.8867 64.1504 91.6055 64.1504ZM97.7695 63.002V65.5215H100.266V63.002H102.053V69.5527H100.266V66.8516H97.7695V69.5527H95.9824V63.002H97.7695ZM105.656 63.002V65.5918C105.656 65.7246 105.65 65.8926 105.639 66.0957C105.631 66.2949 105.619 66.498 105.604 66.7051C105.588 66.9121 105.572 67.0977 105.557 67.2617C105.541 67.4258 105.529 67.5371 105.521 67.5957L108.545 63.002H110.695V69.5527H108.967V66.9395C108.967 66.7246 108.975 66.4883 108.99 66.2305C109.006 65.9688 109.023 65.7227 109.043 65.4922C109.062 65.2617 109.076 65.0879 109.084 64.9707L106.072 69.5527H103.928V63.002H105.656ZM113.572 69.5527H111.639L113.402 66.9629C113.18 66.8691 112.971 66.7402 112.775 66.5762C112.58 66.4082 112.422 66.1973 112.301 65.9434C112.18 65.6895 112.119 65.3848 112.119 65.0293C112.119 64.377 112.365 63.877 112.857 63.5293C113.354 63.1777 113.992 63.002 114.773 63.002H117.82V69.5527H116.033V67.1152H115.049L113.572 69.5527ZM113.871 65.041C113.871 65.3145 113.979 65.5293 114.193 65.6855C114.412 65.8379 114.693 65.9141 115.037 65.9141H116.033V64.2617H114.809C114.488 64.2617 114.252 64.3398 114.1 64.4961C113.947 64.6484 113.871 64.8301 113.871 65.041Z" fill="#F5F6FF"/>
</svg>

<svg width="150" height="196" fill="none" xmlns="http://www.w3.org/2000/svg"><path d="M80.693 195.328h49.07c6.906 0 11.813-1.562 14.721-4.688 3.271-2.778 4.907-7.466 4.907-14.063v-20.835c0-6.598-1.636-11.46-4.907-14.585-2.908-2.778-7.815-4.167-14.721-4.167H85.055c-4.726 0-8.36-1.389-10.905-4.167-2.544-2.431-3.816-5.903-3.816-10.417v-7.813h59.429c6.906 0 11.813-1.563 14.721-4.688 3.271-2.778 4.907-7.466 4.907-14.064v-77.09c0-6.597-1.636-11.458-4.907-14.584C141.576 1.39 136.669 0 129.763 0H19.628C12.722 0 7.633 1.39 4.362 4.167 1.454 7.293 0 12.154 0 18.752v97.924c0 26.391 7.27 46.011 21.809 58.859 14.903 13.195 34.53 19.793 58.884 19.793z" fill="#FF7D04"/><path d="M41.79 53.553l-2.063-6.721h-.053l.035.727c.02.32.037.662.053 1.025.015.363.023.691.023.984v3.985h-1.623v-8.567h2.473l2.027 6.551h.035l2.15-6.55h2.473v8.566h-1.693v-4.055c0-.27.004-.58.012-.932.011-.351.025-.685.04-1.002l.036-.72h-.053l-2.209 6.709H41.79zm13.505-3.287c0 .547-.074 1.03-.223 1.453a2.857 2.857 0 01-.638 1.072c-.278.29-.614.508-1.008.656-.39.149-.832.223-1.324.223a3.52 3.52 0 01-1.272-.223 2.827 2.827 0 01-1.002-.656 3.06 3.06 0 01-.656-1.072 4.277 4.277 0 01-.229-1.453c0-.727.13-1.342.387-1.846a2.654 2.654 0 011.102-1.148c.476-.262 1.045-.393 1.705-.393.613 0 1.156.13 1.629.393.476.261.85.644 1.119 1.148.273.504.41 1.12.41 1.846zm-4.53 0c0 .43.047.79.141 1.084.094.293.24.513.44.662.199.148.459.222.779.222.316 0 .572-.074.768-.222.199-.149.343-.37.433-.662.094-.293.14-.655.14-1.084 0-.434-.046-.793-.14-1.078-.09-.29-.234-.506-.433-.65-.2-.145-.46-.218-.78-.218-.472 0-.816.162-1.031.487-.21.324-.316.81-.316 1.459zm5.608-.639c0-.965.12-1.785.358-2.461.238-.676.617-1.215 1.136-1.617.52-.406 1.201-.682 2.045-.826.422-.075.85-.135 1.283-.182.438-.05.89-.107 1.36-.17l.205 1.564-.662.077c-.239.027-.479.056-.721.088-.242.027-.477.056-.703.087-.227.028-.432.055-.615.083-.399.062-.73.16-.996.292a1.333 1.333 0 00-.61.633c-.14.29-.226.705-.258 1.248h.088c.094-.148.227-.298.399-.45.171-.157.384-.286.638-.388.254-.105.547-.158.88-.158.523 0 .976.108 1.359.322.382.215.677.536.884.962.211.421.317.949.317 1.581 0 .743-.137 1.364-.41 1.864-.27.496-.645.869-1.125 1.119s-1.038.375-1.67.375c-.485 0-.922-.088-1.313-.264a2.744 2.744 0 01-1.008-.779 3.64 3.64 0 01-.638-1.266c-.149-.504-.223-1.082-.223-1.734zm3.287 2.596c.254 0 .475-.055.662-.164.192-.114.34-.297.446-.551.109-.258.164-.604.164-1.037 0-.524-.088-.938-.264-1.242-.172-.31-.467-.463-.885-.463-.254 0-.492.062-.715.187a2.293 2.293 0 00-.556.422c-.153.156-.258.29-.317.398 0 .309.024.61.07.903.051.289.132.55.24.785.11.234.259.42.446.557.192.136.428.205.71.205zm6.305-5.221v2.59c0 .133-.006.3-.018.504-.008.199-.02.402-.035.61a27.94 27.94 0 01-.082.89l3.023-4.594h2.15v6.55h-1.728V50.94c0-.215.008-.452.024-.71.015-.261.033-.507.053-.738.02-.23.033-.404.04-.521l-3.011 4.582h-2.145v-6.551h1.729zm12.785 6.55h-1.787v-5.208h-1.647a31.2 31.2 0 01-.293 2.455c-.113.676-.257 1.226-.433 1.652-.176.422-.395.73-.656.926-.262.195-.584.293-.967.293-.211 0-.4-.016-.569-.047a1.964 1.964 0 01-.45-.14v-1.43c.085.035.177.064.275.088.097.02.197.029.299.029a.48.48 0 00.322-.135c.101-.09.197-.244.287-.463a5.32 5.32 0 00.252-.92c.082-.39.156-.884.223-1.482.066-.598.128-1.32.187-2.168h4.957v6.55zm3.668-4.019h1.26c.672 0 1.226.07 1.664.211.437.14.764.356.978.645.215.285.323.644.323 1.078 0 .422-.098.789-.293 1.101-.196.313-.506.555-.932.727-.426.172-.983.258-1.67.258h-3.117v-6.551h1.787v2.531zm2.438 1.957c0-.254-.102-.437-.305-.55-.203-.114-.506-.17-.908-.17h-1.225v1.546h1.248c.348 0 .633-.062.856-.187.222-.129.334-.342.334-.639zm4.933-4.488v2.52h2.496v-2.52h1.787v6.55h-1.787v-2.7H89.79v2.7h-1.787v-6.55h1.787zm6.158 6.55v-6.55h1.787v2.531h.862c.668 0 1.218.07 1.652.211.438.14.762.356.973.645.211.285.316.644.316 1.078 0 .422-.098.789-.293 1.101-.195.313-.504.555-.926.727-.421.172-.974.258-1.658.258h-2.713zm1.787-1.236h.827c.347 0 .632-.062.855-.187.223-.129.334-.342.334-.639 0-.254-.102-.437-.305-.55-.203-.114-.505-.17-.908-.17h-.803v1.546zm4.752 1.237v-6.551h1.787v6.55h-1.787zm6.369-6.674c.606 0 1.127.117 1.565.352.437.23.775.566 1.014 1.007.238.442.357.98.357 1.617v.868h-4.225c.02.504.17.9.452 1.19.285.284.679.427 1.183.427.418 0 .801-.043 1.149-.13a5.85 5.85 0 001.072-.386v1.383c-.324.16-.664.277-1.02.352a6.314 6.314 0 01-1.283.11c-.656 0-1.238-.12-1.746-.362a2.71 2.71 0 01-1.189-1.108c-.286-.496-.428-1.12-.428-1.875 0-.765.129-1.402.387-1.91a2.63 2.63 0 011.089-1.148c.465-.258 1.006-.387 1.623-.387zm.012 1.271a1.2 1.2 0 00-.867.334c-.227.223-.357.573-.393 1.05h2.508a1.78 1.78 0 00-.146-.71 1.106 1.106 0 00-.41-.492c-.18-.121-.411-.182-.692-.182zM37.529 63.002v6.55h-1.793v-5.208h-2.373v5.209h-1.787v-6.551h5.953zm5.52-.123c.738 0 1.334.287 1.787.861.457.574.686 1.416.686 2.526 0 .742-.108 1.367-.323 1.875-.215.503-.511.884-.89 1.142a2.267 2.267 0 01-1.307.387c-.317 0-.588-.04-.815-.117a2.093 2.093 0 01-.58-.31 2.76 2.76 0 01-.416-.411h-.093a4.777 4.777 0 01.093.961v2.642h-1.787v-9.433h1.453l.252.85h.082a2.54 2.54 0 01.428-.487 1.89 1.89 0 01.604-.351c.238-.09.513-.135.826-.135zm-.574 1.43c-.313 0-.56.064-.745.193-.183.129-.318.322-.404.58-.082.258-.127.584-.135.979v.193c0 .422.04.78.118 1.072.082.293.216.516.404.668.191.153.453.229.785.229.274 0 .498-.076.674-.229.176-.152.306-.375.393-.668.09-.297.134-.658.134-1.084 0-.64-.1-1.123-.299-1.447-.199-.324-.507-.486-.925-.486zm6.252-1.307v2.59c0 .133-.006.3-.018.504-.008.199-.02.402-.035.61a28.77 28.77 0 01-.082.89l3.023-4.594h2.15v6.55h-1.728V66.94c0-.214.008-.45.023-.708.016-.262.034-.508.053-.739.02-.23.034-.404.041-.521l-3.011 4.582h-2.145v-6.551h1.729zm10.564-.123c.738 0 1.334.287 1.787.861.457.574.686 1.416.686 2.526 0 .742-.108 1.367-.323 1.875-.214.503-.511.884-.89 1.142a2.267 2.267 0 01-1.307.387c-.316 0-.588-.04-.814-.117a2.093 2.093 0 01-.58-.31 2.76 2.76 0 01-.416-.411h-.094a4.748 4.748 0 01.094.961v2.642h-1.787v-9.433H57.1l.252.85h.082c.117-.176.26-.338.427-.487a1.89 1.89 0 01.604-.351c.238-.09.513-.135.826-.135zm-.574 1.43c-.313 0-.56.064-.744.193-.184.129-.319.322-.405.58-.082.258-.127.584-.134.979v.193c0 .422.039.78.117 1.072.082.293.217.516.404.668.192.153.453.229.785.229.274 0 .498-.076.674-.229.176-.152.307-.375.393-.668a3.78 3.78 0 00.134-1.084c0-.64-.1-1.123-.298-1.447-.2-.324-.508-.486-.926-.486zm10.389 5.244h-1.788v-5.21h-1.646c-.082.962-.18 1.78-.293 2.456-.113.676-.258 1.226-.434 1.652-.175.422-.394.73-.656.926-.262.195-.584.293-.967.293-.21 0-.4-.016-.568-.047a1.965 1.965 0 01-.451-.14v-1.43c.086.035.178.064.275.088.098.02.197.029.299.029a.48.48 0 00.322-.135c.102-.09.198-.244.287-.463a5.32 5.32 0 00.252-.92c.082-.39.157-.884.223-1.482s.129-1.32.187-2.168h4.958v6.55zm7.834-3.287a4.37 4.37 0 01-.223 1.453 2.872 2.872 0 01-.639 1.072c-.277.29-.613.508-1.008.656-.39.149-.832.223-1.324.223-.46 0-.885-.074-1.271-.223a2.826 2.826 0 01-1.002-.656 3.06 3.06 0 01-.657-1.072c-.152-.422-.228-.906-.228-1.453 0-.727.129-1.342.387-1.846a2.654 2.654 0 011.101-1.148c.477-.262 1.045-.393 1.705-.393.613 0 1.156.13 1.63.393.476.261.849.644 1.118 1.148.274.504.41 1.12.41 1.846zm-4.53 0c0 .43.047.79.14 1.084.094.293.241.513.44.662.2.148.46.222.78.222.316 0 .572-.074.767-.222.2-.149.344-.37.434-.662.093-.293.14-.655.14-1.084 0-.434-.047-.793-.14-1.079-.09-.289-.235-.505-.434-.65-.2-.144-.459-.217-.78-.217-.472 0-.816.162-1.03.487-.211.324-.317.81-.317 1.459zm15.317-3.264l-2.415 3.14 2.643 3.41h-1.91l-2.496-3.322v3.323h-1.664V66.23l-2.496 3.322h-1.91l2.642-3.41-2.414-3.141h1.846l2.332 3.182v-3.182h1.664v3.182l2.332-3.182h1.846zm3.867-.123c.605 0 1.127.117 1.564.352.438.23.776.566 1.014 1.007.238.442.357.98.357 1.618v.867h-4.224c.02.504.17.9.45 1.19.286.284.68.427 1.184.427.418 0 .801-.043 1.149-.13a5.841 5.841 0 001.072-.386v1.383c-.324.16-.664.277-1.02.352a6.32 6.32 0 01-1.283.11c-.656 0-1.238-.12-1.746-.362a2.711 2.711 0 01-1.19-1.108c-.284-.496-.427-1.12-.427-1.875 0-.765.129-1.402.387-1.91.262-.512.625-.895 1.09-1.148.465-.258 1.006-.387 1.623-.387zm.012 1.271c-.348 0-.637.112-.868.334-.226.223-.357.573-.392 1.05h2.507a1.765 1.765 0 00-.146-.71 1.1 1.1 0 00-.41-.492c-.18-.121-.41-.182-.691-.182zm6.163-1.148v2.52h2.497v-2.52h1.787v6.55h-1.787v-2.7h-2.497v2.7h-1.787v-6.55h1.787zm7.887 0v2.59c0 .133-.006.3-.017.504a19.003 19.003 0 01-.082 1.166c-.016.164-.028.275-.036.334l3.024-4.594h2.15v6.55h-1.728V66.94c0-.214.008-.45.023-.708.016-.262.033-.508.053-.739.019-.23.033-.404.041-.521l-3.012 4.582h-2.144v-6.551h1.728zm7.916 6.55h-1.933l1.763-2.59a2.478 2.478 0 01-.627-.386 1.902 1.902 0 01-.474-.633 2.109 2.109 0 01-.182-.914c0-.652.246-1.152.738-1.5.497-.351 1.135-.527 1.916-.527h3.047v6.55h-1.787v-2.437h-.984l-1.477 2.438zm.299-4.511c0 .273.108.488.322.645.219.152.5.228.844.228h.996v-1.652h-1.224c-.321 0-.557.078-.709.234a.742.742 0 00-.229.545z" fill="#F5F6FF"/></svg>
